img/sponsors/logo-4.svg

<?xml version="1.0" encoding="UTF-8"?>
<svg width="681px" height="120px" viewBox="0 0 681 120" version="1.1" xmlns="http://www.w3.org/2000/svg" xmlns:xlink="http://www.w3.org/1999/xlink">
    <!-- Generator: Sketch 43.1 (39012) - http://www.bohemiancoding.com/sketch -->
    <title>logo-cuentica</title>
    <desc>Created with Sketch.</desc>
    <defs></defs>
    <g id="Page-1" stroke="none" stroke-width="1" fill="none" fill-rule="evenodd">
        <g id="logo-cuentica" fill="#FFFFFF">
            <g id="cuentica">
                <path d="M218.761,56.2252 C222.675,56.2252 226.14,56.8322 229.167,58.0502 C232.189,59.2622 234.589,61.1192 236.366,63.6092 L249.357,63.6092 C246.8,57.4432 242.89,52.7602 237.611,49.5562 C232.339,46.3552 226.048,44.7502 218.761,44.7502 C213.54,44.7502 208.863,45.5742 204.704,47.2022 C200.556,48.8292 197.03,51.1882 194.128,54.2722 C191.218,57.3542 188.98,61.1192 187.415,65.5642 C185.841,70.0122 185.058,75.0212 185.058,80.5922 C185.058,86.2232 185.841,91.2662 187.415,95.7082 C188.98,100.1582 191.236,103.9232 194.167,107.0062 C197.103,110.0902 200.646,112.4342 204.796,114.0362 C208.946,115.6372 213.605,116.4322 218.761,116.4322 C225.997,116.4322 232.234,114.8502 237.482,111.6752 C242.726,108.5042 246.687,103.7772 249.357,97.4942 L236.366,97.4942 C234.589,99.9792 232.189,101.8492 229.167,103.0942 C226.14,104.3372 222.675,104.9602 218.761,104.9602 C211.405,104.9602 205.866,102.9312 202.134,98.8672 C198.396,94.8072 196.53,88.7162 196.53,80.5922 C196.53,72.5292 198.382,66.4572 202.081,62.3662 C205.788,58.2742 211.347,56.2252 218.761,56.2252" id="Fill-1"></path>
                <path d="M311.964,80.5924 C311.964,88.7764 310.066,94.8794 306.269,98.9154 C302.478,102.9464 296.995,104.9604 289.819,104.9604 C282.464,104.9604 276.925,102.9314 273.185,98.8664 C269.452,94.8074 267.587,88.7164 267.587,80.5924 L267.587,44.7504 L256.11,44.7504 L256.11,80.5924 C256.11,86.2234 256.899,91.2664 258.472,95.7084 C260.038,100.1574 262.296,103.9234 265.226,107.0064 C268.161,110.0904 271.704,112.4344 275.855,114.0354 C280.003,115.6374 284.663,116.4324 289.819,116.4324 C294.913,116.4324 299.54,115.6374 303.696,114.0354 C307.849,112.4344 311.384,110.0904 314.321,107.0064 C317.249,103.9234 319.507,100.1574 321.079,95.7084 C322.646,91.2664 323.437,86.2234 323.437,80.5924 L323.437,44.7504 L311.964,44.7504 L311.964,80.5924 Z" id="Fill-2"></path>
                <path d="M342.822,74.8121 C343.652,68.7051 345.888,64.0821 349.537,60.9411 C353.185,57.7981 358.236,56.2251 364.701,56.2251 C371.101,56.2251 376.133,57.7981 379.775,60.9411 C383.422,64.0821 385.66,68.7051 386.488,74.8121 L342.822,74.8121 Z M389.334,54.2721 C386.429,51.1881 382.9,48.8291 378.75,47.2021 C374.599,45.5741 369.922,44.7501 364.701,44.7501 C359.48,44.7501 354.802,45.5741 350.646,47.2021 C346.496,48.8291 342.972,51.1881 340.068,54.2721 C337.158,57.3541 334.92,61.1191 333.347,65.5641 C331.783,70.0121 330.994,75.0211 330.994,80.5921 C330.994,86.2231 331.783,91.2661 333.347,95.7091 C334.92,100.1581 337.177,103.9231 340.109,107.0061 C343.051,110.0901 346.586,112.4341 350.738,114.0361 C354.887,115.6371 359.541,116.4321 364.701,116.4321 C371.939,116.4321 378.177,114.8501 383.422,111.6751 C388.668,108.5041 392.623,103.7771 395.291,97.4941 L382.306,97.4941 C380.531,99.9791 378.131,101.8491 375.109,103.0941 C372.082,104.3371 368.609,104.9611 364.701,104.9611 C358.357,104.9611 353.334,103.4211 349.629,100.3371 C345.922,97.2551 343.652,92.5711 342.822,86.2861 L398.051,86.2861 C398.226,84.5071 398.32,82.6081 398.32,80.5921 C398.32,75.0211 397.549,70.0121 396.01,65.5641 C394.463,61.1191 392.244,57.3541 389.334,54.2721 L389.334,54.2721 Z" id="Fill-3"></path>
                <path d="M464.392,54.359 C461.488,51.275 457.945,48.905 453.769,47.247 C449.585,45.584 444.888,44.751 439.667,44.751 C430.658,44.751 423.277,47.156 417.529,51.96 L417.437,44.751 L406.058,44.751 L406.058,116.432 L417.529,116.432 L417.529,80.592 C417.529,77.688 417.855,74.782 418.499,71.879 C419.16,68.971 420.314,66.365 421.972,64.051 C423.636,61.742 425.9,59.857 428.779,58.405 C431.656,56.95 435.285,56.225 439.667,56.225 C446.964,56.225 452.49,58.257 456.255,62.317 C460.019,66.379 461.906,72.471 461.906,80.592 L461.906,116.432 L473.376,116.432 L473.376,80.592 C473.376,75.021 472.607,70.026 471.068,65.609 C469.527,61.191 467.296,57.443 464.392,54.359" id="Fill-4"></path>
                <path d="M499.882,87.5329 L499.882,56.2249 L510.818,56.2249 L510.818,44.7509 L499.882,44.7509 L499.882,18.517 L488.411,18.517 L488.411,44.7509 L478.982,44.7509 L478.982,56.2249 L488.411,56.2249 L488.411,87.5329 C488.411,96.8369 490.929,103.9849 495.966,108.9659 C501.003,113.9459 508.507,116.4319 518.466,116.4319 L518.466,104.9609 C511.941,104.9609 507.216,103.6389 504.278,101.0039 C501.349,98.3679 499.882,93.8759 499.882,87.5329" id="Fill-5"></path>
                <polygon id="Fill-6" points="523.802 116.4321 535.275 116.4321 535.275 44.7501 523.802 44.7501"></polygon>
                <path d="M529.585,18.517 C525.728,18.517 523.802,20.3572 523.802,24.0312 C523.802,27.7082 525.728,29.5472 529.585,29.5472 C533.374,29.5472 535.274,27.7082 535.274,24.0312 C535.274,20.3572 533.374,18.517 529.585,18.517" id="Fill-7"></path>
                <path d="M576.447,56.2252 C580.363,56.2252 583.834,56.8322 586.855,58.0502 C589.877,59.2622 592.285,61.1192 594.06,63.6092 L607.045,63.6092 C604.494,57.4432 600.578,52.7602 595.306,49.5562 C590.027,46.3552 583.744,44.7502 576.447,44.7502 C571.234,44.7502 566.55,45.5742 562.4,47.2022 C558.25,48.8292 554.72,51.1882 551.816,54.2722 C548.912,57.3542 546.674,61.1192 545.101,65.5642 C543.529,70.0122 542.746,75.0212 542.746,80.5922 C542.746,86.2232 543.529,91.2662 545.101,95.7082 C546.674,100.1582 548.931,103.9232 551.861,107.0062 C554.797,110.0902 558.34,112.4342 562.49,114.0362 C566.64,115.6372 571.295,116.4322 576.447,116.4322 C583.685,116.4322 589.922,114.8502 595.175,111.6752 C600.414,108.5042 604.375,103.7772 607.045,97.4942 L594.06,97.4942 C592.285,99.9792 589.877,101.8492 586.855,103.0942 C583.834,104.3372 580.363,104.9602 576.447,104.9602 C569.101,104.9602 563.56,102.9312 559.822,98.8672 C556.084,94.8072 554.216,88.7162 554.216,80.5922 C554.216,72.5292 556.07,66.4572 559.775,62.3662 C563.482,58.2742 569.043,56.2252 576.447,56.2252" id="Fill-8"></path>
                <path d="M663.335,98.9156 C659.544,102.9466 654.058,104.9606 646.886,104.9606 C639.532,104.9606 633.987,102.9316 630.253,98.8666 C626.521,94.8076 624.655,88.7166 624.655,80.5926 C624.655,72.5286 626.509,66.4576 630.214,62.3656 C633.921,58.2736 639.474,56.2256 646.886,56.2256 C654.005,56.2256 659.485,58.2446 663.335,62.2706 C667.134,66.3076 669.032,72.4146 669.032,80.5926 C669.032,88.7756 667.134,94.8796 663.335,98.9156 L663.335,98.9156 Z M669.032,44.7506 L669.032,51.9596 C663.218,47.1556 655.839,44.7506 646.886,44.7506 C641.673,44.7506 636.98,45.5736 632.831,47.2016 C628.689,48.8286 625.157,51.1876 622.253,54.2716 C619.345,57.3546 617.112,61.1186 615.54,65.5636 C613.966,70.0126 613.185,75.0206 613.185,80.5926 C613.185,86.2236 613.966,91.2666 615.54,95.7086 C617.112,100.1576 619.362,103.9236 622.3,107.0066 C625.23,110.0906 628.773,112.4346 632.923,114.0356 C637.079,115.6376 641.732,116.4326 646.886,116.4326 C655.898,116.4326 663.276,114.0026 669.032,109.1366 L669.032,116.4326 L680.503,116.4326 L680.503,44.7506 L669.032,44.7506 Z" id="Fill-9"></path>
                <polygon id="Fill-10" points="381.81 28.1774 371.402 28.1774 361.21 39.8504 366.451 39.8504"></polygon>
                <path d="M124.966,112.84 C111.3,112.843 99.6117,104.986 93.7387,93.591 L126.235,80.648 C127.082,80.31 127.761,79.65 128.12,78.792 C128.463,77.975 128.497,76.997 128.141,76.175 L128.14,76.171 L120.881,58.412 L120.877,58.4 L114.906,43.753 C118.108,42.737 121.449,42.03 124.97,42.034 C144.509,42.034 160.395,57.918 160.412,77.45 C160.421,96.963 144.518,112.849 124.966,112.84 L124.966,112.84 Z M74.7907,93.795 C74.3507,93.183 73.9577,92.583 73.5537,91.961 C73.2067,91.375 72.8127,90.778 72.4517,90.158 C71.8967,89.138 71.3727,88.046 70.9127,86.951 C70.6187,86.347 70.3187,85.72 70.0677,85.069 C69.6317,83.901 69.2627,82.677 68.9177,81.487 C68.7317,80.893 68.5347,80.33 68.3917,79.74 C67.9467,77.939 67.6297,76.101 67.4367,74.257 L90.0407,65.243 C90.8767,64.912 91.5537,64.239 91.9017,63.41 C92.2527,62.556 92.2607,61.618 91.9377,60.778 L82.7347,38.249 C84.1867,37.105 85.7217,36.083 87.3267,35.128 C87.8557,34.823 88.4117,34.59 88.9447,34.292 C90.0337,33.708 91.1437,33.149 92.2557,32.651 C92.9197,32.374 93.6397,32.171 94.3427,31.912 C95.3677,31.538 96.4307,31.152 97.4907,30.87 C98.2827,30.657 99.0347,30.511 99.8167,30.345 C100.5,30.206 101.203,30.058 101.892,29.98 L105.95,39.937 L106.966,42.396 L113.77,59.107 C110.916,62.258 108.483,65.755 106.811,69.712 C105.114,73.687 104.289,77.874 104.001,82.151 L74.7907,93.795 Z M28.7437,75.104 C22.3267,72.394 16.9887,67.946 13.1497,62.226 L16.0377,55.423 L60.5797,74.365 C60.6647,75.12 60.8657,75.857 60.9907,76.607 C61.1997,78.169 61.4417,79.707 61.8167,81.248 C62.0627,82.344 62.3837,83.39 62.7387,84.478 C63.1897,85.974 63.7107,87.437 64.3287,88.861 C64.5487,89.405 64.6657,89.953 64.9207,90.483 L28.7437,75.104 Z M11.2267,39.888 C11.0557,41.049 11.1947,42.238 11.1087,43.433 C10.9547,45.656 10.6657,47.893 10.8367,50.107 L9.0197,54.401 C5.9117,45.99 6.0717,36.594 9.6557,28.204 C13.2177,19.841 19.7187,13.414 27.9977,9.858 L26.3707,13.64 C24.6377,15.05 23.2107,16.794 21.7197,18.468 C20.9547,19.311 20.0147,20.013 19.3487,20.925 C17.2187,23.714 15.4327,26.739 14.0647,29.933 C12.7147,33.129 11.7757,36.483 11.2267,39.888 L11.2267,39.888 Z M29.7817,20.009 L41.3747,24.947 L75.8237,39.599 L82.5667,56.092 C82.5837,56.19 82.6637,56.242 82.7067,56.326 L84.2747,60.17 L78.8467,62.335 L78.8227,62.325 L63.8517,68.284 L17.7927,48.735 C17.6687,47.049 17.7507,45.397 17.8957,43.708 C17.9607,42.784 17.8917,41.833 18.0657,40.915 C18.4747,38.081 19.2327,35.294 20.3637,32.634 C21.4817,30.01 22.9407,27.582 24.6477,25.317 C25.2137,24.575 25.8987,23.952 26.4977,23.271 C27.5297,22.106 28.5907,21.021 29.7817,20.009 L29.7817,20.009 Z M36.5237,7.364 C43.2627,6.151 50.2077,6.977 56.5777,9.671 L92.8267,25.107 C92.2757,25.299 91.7747,25.601 91.2187,25.806 C89.7237,26.378 88.3077,26.992 86.9027,27.718 C85.9047,28.214 84.9417,28.703 83.9527,29.282 C82.5747,30.079 81.2757,30.997 79.9947,31.961 C79.3847,32.378 78.7427,32.707 78.1807,33.148 L33.5737,14.19 L36.5237,7.364 Z M124.992,35.2 C120.536,35.189 116.308,36.02 112.31,37.339 L107.225,24.896 C107.14,24.671 106.904,24.535 106.748,24.349 C106.42,23.868 106.074,23.446 105.587,23.192 C105.518,23.148 105.508,23.04 105.423,23.009 L59.2197,3.372 C51.0657,-0.093 42.0767,-0.894 33.4627,0.997 C33.4317,1.02 33.4047,1.001 33.3547,1.006 C19.6457,3.971 8.7067,12.903 3.3677,25.541 C-2.0203,38.159 -0.8833,52.696 6.3487,64.427 C6.4187,64.554 6.5767,64.618 6.6637,64.737 C11.3067,72.182 17.9807,77.963 26.1687,81.44 L71.6977,100.81 C72.2577,101.15 72.8657,101.397 73.5227,101.395 C73.9487,101.382 74.3727,101.312 74.7887,101.165 L87.3517,96.146 C94.2307,110.056 108.451,119.674 124.976,119.685 C148.281,119.685 167.23,100.743 167.239,77.456 C167.243,54.157 148.278,35.2 124.992,35.2 L124.992,35.2 Z" id="Fill-11"></path>
            </g>
        </g>
    </g>
</svg>

<svg height="120" viewBox="0 0 681 120" width="681" xmlns="http://www.w3.org/2000/svg"><g fill="#fff" fill-rule="evenodd"><path d="m218.761 56.2252c3.914 0 7.379.607 10.406 1.825 3.022 1.212 5.422 3.069 7.199 5.559h12.991c-2.557-6.166-6.467-10.849-11.746-14.053-5.272-3.201-11.563-4.806-18.85-4.806-5.221 0-9.898.824-14.057 2.452-4.148 1.627-7.674 3.986-10.576 7.07-2.91 3.082-5.148 6.847-6.713 11.292-1.574 4.448-2.357 9.457-2.357 15.028 0 5.631.783 10.674 2.357 15.116 1.565 4.45 3.821 8.215 6.752 11.298 2.936 3.084 6.479 5.428 10.629 7.03 4.15 1.601 8.809 2.396 13.965 2.396 7.236 0 13.473-1.582 18.721-4.757 5.244-3.171 9.205-7.898 11.875-14.181h-12.991c-1.777 2.485-4.177 4.355-7.199 5.6-3.027 1.243-6.492 1.866-10.406 1.866-7.356 0-12.895-2.029-16.627-6.093-3.738-4.06-5.604-10.151-5.604-18.275 0-8.063 1.852-14.135 5.551-18.226 3.707-4.092 9.266-6.141 16.68-6.141"/><path d="m311.964 80.5924c0 8.184-1.898 14.287-5.695 18.323-3.791 4.031-9.274 6.045-16.45 6.045-7.355 0-12.894-2.029-16.634-6.094-3.733-4.059-5.598-10.15-5.598-18.274v-35.842h-11.477v35.842c0 5.631.789 10.674 2.362 15.116 1.566 4.449 3.824 8.215 6.754 11.298 2.935 3.084 6.478 5.428 10.629 7.029 4.148 1.602 8.808 2.397 13.964 2.397 5.094 0 9.721-.795 13.877-2.397 4.153-1.601 7.688-3.945 10.625-7.029 2.928-3.083 5.186-6.849 6.758-11.298 1.567-4.442 2.358-9.485 2.358-15.116v-35.842h-11.473z"/><path d="m342.822 74.8121c.83-6.107 3.066-10.73 6.715-13.871 3.648-3.143 8.699-4.716 15.164-4.716 6.4 0 11.432 1.573 15.074 4.716 3.647 3.141 5.885 7.764 6.713 13.871zm46.512-20.54c-2.905-3.084-6.434-5.443-10.584-7.07-4.151-1.628-8.828-2.452-14.049-2.452s-9.899.824-14.055 2.452c-4.15 1.627-7.674 3.986-10.578 7.07-2.91 3.082-5.148 6.847-6.721 11.292-1.564 4.448-2.353 9.457-2.353 15.028 0 5.631.789 10.674 2.353 15.117 1.573 4.449 3.83 8.214 6.762 11.297 2.942 3.084 6.477 5.428 10.629 7.03 4.149 1.601 8.803 2.396 13.963 2.396 7.238 0 13.476-1.582 18.721-4.757 5.246-3.171 9.201-7.898 11.869-14.181h-12.985c-1.775 2.485-4.175 4.355-7.197 5.6-3.027 1.243-6.5 1.867-10.408 1.867-6.344 0-11.367-1.54-15.072-4.624-3.707-3.082-5.977-7.766-6.807-14.051h55.229c.175-1.779.269-3.678.269-5.694 0-5.571-.771-10.58-2.31-15.028-1.547-4.445-3.766-8.21-6.676-11.292z"/><path d="m464.392 54.359c-2.904-3.084-6.447-5.454-10.623-7.112-4.184-1.663-8.881-2.496-14.102-2.496-9.009 0-16.39 2.405-22.138 7.209l-.092-7.209h-11.379v71.681h11.471v-35.84c0-2.904.326-5.81.97-8.713.661-2.908 1.815-5.514 3.473-7.828 1.664-2.309 3.928-4.194 6.807-5.646 2.877-1.455 6.506-2.18 10.888-2.18 7.297 0 12.823 2.032 16.588 6.092 3.764 4.062 5.651 10.154 5.651 18.275v35.84h11.47v-35.84c0-5.571-.769-10.566-2.308-14.983-1.541-4.418-3.772-8.166-6.676-11.25"/><path d="m499.882 87.5329v-31.308h10.936v-11.474h-10.936v-26.2339h-11.471v26.2339h-9.429v11.474h9.429v31.308c0 9.304 2.518 16.452 7.555 21.433 5.037 4.98 12.541 7.466 22.5 7.466v-11.471c-6.525 0-11.25-1.322-14.188-3.957-2.929-2.636-4.396-7.128-4.396-13.471"/><path d="m523.802 116.4321h11.473v-71.682h-11.473z"/><path d="m529.585 18.517c-3.857 0-5.783 1.8402-5.783 5.5142 0 3.677 1.926 5.516 5.783 5.516 3.789 0 5.689-1.839 5.689-5.516 0-3.674-1.9-5.5142-5.689-5.5142"/><path d="m576.447 56.2252c3.916 0 7.387.607 10.408 1.825 3.022 1.212 5.43 3.069 7.205 5.559h12.985c-2.551-6.166-6.467-10.849-11.739-14.053-5.279-3.201-11.562-4.806-18.859-4.806-5.213 0-9.897.824-14.047 2.452-4.15 1.627-7.68 3.986-10.584 7.07-2.904 3.082-5.142 6.847-6.715 11.292-1.572 4.448-2.355 9.457-2.355 15.028 0 5.631.783 10.674 2.355 15.116 1.573 4.45 3.83 8.215 6.76 11.298 2.936 3.084 6.479 5.428 10.629 7.03 4.15 1.601 8.805 2.396 13.957 2.396 7.238 0 13.475-1.582 18.728-4.757 5.239-3.171 9.2-7.898 11.87-14.181h-12.985c-1.775 2.485-4.183 4.355-7.205 5.6-3.021 1.243-6.492 1.866-10.408 1.866-7.346 0-12.887-2.029-16.625-6.093-3.738-4.06-5.606-10.151-5.606-18.275 0-8.063 1.854-14.135 5.559-18.226 3.707-4.092 9.268-6.141 16.672-6.141"/><path d="m663.335 98.9156c-3.791 4.031-9.277 6.045-16.449 6.045-7.354 0-12.899-2.029-16.633-6.094-3.732-4.059-5.598-10.15-5.598-18.274 0-8.064 1.854-14.135 5.559-18.227 3.707-4.092 9.26-6.14 16.672-6.14 7.119 0 12.599 2.019 16.449 6.045 3.799 4.037 5.697 10.144 5.697 18.322 0 8.183-1.898 14.287-5.697 18.323zm5.697-54.165v7.209c-5.814-4.804-13.193-7.209-22.146-7.209-5.213 0-9.906.823-14.055 2.451-4.142 1.627-7.674 3.986-10.578 7.07-2.908 3.083-5.141 6.847-6.713 11.292-1.574 4.449-2.355 9.457-2.355 15.029 0 5.631.781 10.674 2.355 15.116 1.572 4.449 3.822 8.215 6.76 11.298 2.93 3.084 6.473 5.428 10.623 7.029 4.156 1.602 8.809 2.397 13.963 2.397 9.012 0 16.39-2.43 22.146-7.296v7.296h11.471v-71.682z"/><path d="m381.81 28.1774h-10.408l-10.192 11.673h5.241z"/><path d="m124.966 112.84c-13.666.003-25.3543-7.854-31.2273-19.249l32.4963-12.943c.847-.338 1.526-.998 1.885-1.856.343-.817.377-1.795.021-2.617l-.001-.004-7.259-17.759-.004-.012-5.971-14.647c3.202-1.016 6.543-1.723 10.064-1.719 19.539 0 35.425 15.884 35.442 35.416.009 19.513-15.894 35.399-35.446 35.39zm-50.1753-19.045c-.44-.612-.833-1.212-1.237-1.834-.347-.586-.741-1.183-1.102-1.803-.555-1.02-1.079-2.112-1.539-3.207-.294-.604-.594-1.231-.845-1.882-.436-1.168-.805-2.392-1.15-3.582-.186-.594-.383-1.157-.526-1.747-.445-1.801-.762-3.639-.955-5.483l22.604-9.014c.836-.331 1.513-1.004 1.861-1.833.351-.854.359-1.792.036-2.632l-9.203-22.529c1.452-1.144 2.987-2.166 4.592-3.121.529-.305 1.085-.538 1.618-.836 1.089-.584 2.199-1.143 3.311-1.641.664-.277 1.384-.48 2.087-.739 1.025-.374 2.088-.76 3.148-1.042.792-.213 1.544-.359 2.326-.525.6833-.139 1.3863-.287 2.0753-.365l4.058 9.957 1.016 2.459 6.804 16.711c-2.854 3.151-5.287 6.648-6.959 10.605-1.697 3.975-2.522 8.162-2.81 12.439zm-46.047-18.691c-6.417-2.71-11.755-7.158-15.594-12.878l2.888-6.803 44.542 18.942c.085.755.286 1.492.411 2.242.209 1.562.451 3.1.826 4.641.246 1.096.567 2.142.922 3.23.451 1.496.972 2.959 1.59 4.383.22.544.337 1.092.592 1.622zm-17.517-35.216c-.171 1.161-.032 2.35-.118 3.545-.154 2.223-.443 4.46-.272 6.674l-1.817 4.294c-3.108-8.411-2.948-17.807.636-26.197 3.562-8.363 10.063-14.79 18.342-18.346l-1.627 3.782c-1.733 1.41-3.16 3.154-4.651 4.828-.765.843-1.705 1.545-2.371 2.457-2.13 2.789-3.916 5.814-5.284 9.008-1.35 3.196-2.289 6.55-2.838 9.955zm18.555-19.879 11.593 4.938 34.449 14.652 6.743 16.493c.017.098.097.15.14.234l1.568 3.844-5.428 2.165-.024-.01-14.971 5.959-46.059-19.549c-.124-1.686-.042-3.338.103-5.027.065-.924-.004-1.875.17-2.793.409-2.834 1.167-5.621 2.298-8.281 1.118-2.624 2.577-5.052 4.284-7.317.566-.742 1.251-1.365 1.85-2.046 1.032-1.165 2.093-2.25 3.284-3.262zm6.742-12.645c6.739-1.213 13.684-.387 20.054 2.307l36.249 15.436c-.551.192-1.052.494-1.608.699-1.495.572-2.911 1.186-4.316 1.912-.998.496-1.961.985-2.95 1.564-1.378.797-2.677 1.715-3.958 2.679-.61.417-1.252.746-1.814 1.187l-44.607-18.958zm88.4683 27.836c-4.456-.011-8.684.82-12.682 2.139l-5.085-12.443c-.085-.225-.321-.361-.477-.547-.328-.481-.674-.903-1.161-1.157-.069-.044-.079-.152-.164-.183l-46.2033-19.637c-8.154-3.465-17.143-4.266-25.757-2.375-.031.023-.058.004-.108.009-13.709 2.965-24.648 11.897-29.987 24.535-5.388 12.618-4.251 27.155 2.981 38.886.07.127.228.191.315.31 4.643 7.445 11.317 13.226 19.505 16.703l45.529 19.37c.56.34 1.168.587 1.825.585.426-.013.85-.083 1.266-.23l12.563-5.019c6.879 13.91 21.0993 23.528 37.6243 23.539 23.305 0 42.254-18.942 42.263-42.229.004-23.299-18.961-42.256-42.247-42.256z"/></g></svg>
